X: 4447
T: Bonnie Isle O' Whalsey, The
R: reel
M: 4/4
K: Amixolydian
(e2|e)d cA B2ed|cA Ac BE2(e|e)d cA B2ed|cd eg fd ed|cA Ac BE E(c|c)d eg fd ed|cd ef ga ge|dB GB A2||

